X: 286
T: My Love Is On the River
B: O'Neill's 286
N: "Distinctly"
N: "Collected by F.O'Neill"
Z: 1997 by John Chambers <jc@trillian.mit.edu>
M: 2/4
L: 1/8
K:D
A2 AG|FG AB|c2 B2|HA3 f/e/ \
|dc AG|FG Ad|e2 fe|d3 z|
|A2 AG|FG .A.B|c2 B2|HA3 f/e/ \
|dc AG|FG Ac/d/|e2 fe|d3 z||
||fg ag|f2 ed|dc2 AG A4 \
|fg ag|f2 ed|cd ef|d4|
|.A.A .A.G|.F.G .A.B|.c.c BG|.A.A fe \
|dc AG|FG Ac/d/|e2 fe|d3 z||
